X:1
T:Ecce Agnus, 66.64.884
T:Ecce Agnus, 66.64.884
T:George William Warren, 1894
T:Public Domain Courtesy of the Cyber Hymnal™
C:George William Warren, 1894
Z:Public Domain
Z:Courtesy of the Cyber Hymnal™
%%score 1 ( 2 3 )
L:1/8
Q:1/4=135
M:6/4
K:Bb
V:1 treble 
V:2 bass 
V:3 bass 
V:1
 [Gd]2 | [Gd]4 [Gc]2 [GB]4 [^FA]2 | [DG]6- [DG]4 [FA]2 | [FB]4 [Fc]2 [Fd]4 [Ee]2 | [Fc]12 | %5
 [Dd]2 [Dd]2 [Dd]2 [Dd]4 [^FA]2 | [GB]6- [GB]4 [Gc]2 | [GB]6 [^FA]6 | [DG]12 | %9
 [FG]2 [FG]2 [FG]2 [=EG]4 [Ec]2 | [EG]4 [EA]2 [D=B]6 | [FG]2 [FG]2 [FG]2 [=EG]4 [Ec]2 | %12
 [EG]4 [GA]2 [G=B]4 [Gc]2 | [Gd]6 [CD]6 | [DG]6- [DG]4 |] %15
V:2
 [G,B,]2 | [G,B,]4 [E,C]2 [D,D]4 [D,C]2 | [G,B,]6- [G,B,]4 [E,C]2 | [D,B,]4 [F,A,]2 B,4 [G,B,]2 | %4
 [F,A,]12 | [^F,A,]2 [F,A,]2 [F,A,]2 [F,A,]4 [D,D]2 | [G,D]6- [G,D]4 [C,E]2 | [D,D]6 [D,C]6 | %8
 [G,,G,B,]12 | [G,=B,]2 [G,B,]2 [G,B,]2 [G,C]4 [G,C]2 | [G,C]4 [G,C]2 [G,=B,]6 | %11
 [G,D]2 [G,C]2 [G,=B,]2 [G,C]4 [G,C]2 | [G,C]4 [G,E]2 [G,D]4 [E,A,]2 | [D,B,]6 [D,^F,]6 | %14
 [G,,G,B,]6- [G,,G,B,]4 |] %15
V:3
 x2 | x12 | x12 | x6 B,4 x2 | x12 | x12 | x12 | x12 | x12 | x12 | x12 | x12 | x12 | x12 | x10 |] %15

